svg/OSM-icons/office #0b0b61 °ffffff !label=enoffices,deBüros/25027;office=company;[addr];[contact];!label=encompany,deFirma.svg

<svg xmlns="http://www.w3.org/2000/svg" viewBox="0 0 580 580" enable-background="new 0 0 580 580"><path fill="#111" stroke="#eee" stroke-width="3.408" d="m66.28 1.768c-41.34 0-64.57 21.371-64.57 65.04v450.12c0 40.844 20.894 62.23 62.19 62.23h452.02c41.31 0 62.23-20.316 62.23-62.23v-450.12c0-42.601-20.923-65.04-63.52-65.04-.003 0-448.49-.143-448.35 0z"/><g fill="#fff"><path d="m309.09 427.58h-66.46c1.362-3.477 2.116-7.256 2.116-11.215v-32.546l-2.429-29.659c-4.677-11.03-15.604-18.766-28.338-18.766h-64.775c-12.734 0-23.661 7.737-28.338 18.767l-2.429 29.657v32.547c0 3.959.754 7.738 2.116 11.215h-66.45v22.498 9 77.996h10.5v-77.996h233.99v77.996h10.498v-77.996h.002v-31.498m-88.63-50.891v50.891h-7.287v-50.891h7.287m-77.73 0h7.288v50.891h-7.288v-50.891"/><circle cx="181.6" cy="284.66" r="37.65"/><path d="m554.13 250.51h-306.99v-196.91h306.99v196.91m-299.99-7h292.99v-182.91h-292.99v182.91"/><path d="m275.45 181h33.594v51.5h-33.594z"/><path d="m329.65 129.5h33.594v103h-33.594z"/><path d="m383.85 175.5h33.594v57h-33.594z"/><path d="m438.05 129.5h33.594v103h-33.594z"/><path d="m492.24 87.5h33.594v145h-33.594z"/></g></svg>

<?xml version="1.0" encoding="utf-8"?>
<!-- Generator: Adobe Illustrator 15.0.0, SVG Export Plug-In . SVG Version: 6.00 Build 0)  -->
<!DOCTYPE svg PUBLIC "-//W3C//DTD SVG 1.1//EN" "http://www.w3.org/Graphics/SVG/1.1/DTD/svg11.dtd">
<svg version="1.1" xmlns="http://www.w3.org/2000/svg" xmlns:xlink="http://www.w3.org/1999/xlink" x="0px" y="0px" width="580px"
	 height="580px" viewBox="0 0 580 580" enable-background="new 0 0 580 580" xml:space="preserve">
<g id="Layer_2">
	<g id="g1327">
		<path id="path1329" fill="#111111" stroke="#EEEEEE" stroke-width="3.408" d="M66.275,1.768
			c-41.335,0-64.571,21.371-64.571,65.036v450.123c0,40.844,20.894,62.229,62.192,62.229H515.92
			c41.307,0,62.229-20.316,62.229-62.229V66.804c0-42.601-20.923-65.036-63.522-65.036C514.624,1.768,66.133,1.625,66.275,1.768z"/>
	</g>
</g>
<g id="svg2" inkscape:output_extension="org.inkscape.output.svg.inkscape" xmlns:cc="http://creativecommons.org/ns#" xmlns:svg="http://www.w3.org/2000/svg" xmlns:sodipodi="http://sodipodi.sourceforge.net/DTD/sodipodi-0.dtd" xmlns:rdf="http://www.w3.org/1999/02/22-rdf-syntax-ns#" xmlns:dc="http://purl.org/dc/elements/1.1/" xmlns:inkscape="http://www.inkscape.org/namespaces/inkscape" sodipodi:docname="waste_bin.svg" inkscape:version="0.46" sodipodi:version="0.32">
	<g>
		<g>
			<path fill="#FFFFFF" d="M309.094,427.584h-66.456c1.362-3.477,2.116-7.256,2.116-11.215v-32.546l-2.429-29.659
				c-4.677-11.028-15.604-18.766-28.338-18.766h-64.775c-12.734,0-23.661,7.737-28.338,18.767l-2.429,29.657v32.547
				c0,3.959,0.754,7.738,2.116,11.215H54.106v22.498v9v77.996h10.5v-77.996h233.988v77.996h10.498v-77.996h0.002V427.584z
				 M220.464,376.693v50.891h-7.287v-50.891H220.464z M142.735,376.693h7.288v50.891h-7.288V376.693z"/>
		</g>
		<g>
			<circle fill="#FFFFFF" cx="181.6" cy="284.664" r="37.65"/>
		</g>
	</g>
	<g>
		<g>
			<path fill="#FFFFFF" d="M554.135,250.514H247.149V53.606h306.985V250.514z M254.149,243.514h292.985V60.606H254.149V243.514z"/>
		</g>
		<g>
			<g>
				<rect x="275.447" y="181" fill="#FFFFFF" width="33.594" height="51.5"/>
			</g>
			<g>
				<rect x="329.646" y="129.5" fill="#FFFFFF" width="33.594" height="103"/>
			</g>
			<g>
				<rect x="383.846" y="175.5" fill="#FFFFFF" width="33.594" height="57"/>
			</g>
			<g>
				<rect x="438.045" y="129.5" fill="#FFFFFF" width="33.594" height="103"/>
			</g>
			<g>
				<rect x="492.244" y="87.5" fill="#FFFFFF" width="33.594" height="145"/>
			</g>
		</g>
	</g>
</g>
</svg>
